16x16/panel/megalogging.svg

<svg xmlns="http://www.w3.org/2000/svg" width="16" height="16"><defs><style id="current-color-scheme" type="text/css"></style></defs><path d="M8 1a7 7 0 0 0-7 7 7 7 0 0 0 7 7 7 7 0 0 0 7-7 7 7 0 0 0-7-7zM4 5h2l2 3 2-3h2v6h-2V8.5L9 10H7L6 8.5V11H4V5z" fill="currentColor" opacity=".3" color="#d3dae3"/></svg>

<svg xmlns="http://www.w3.org/2000/svg" width="16" height="16" version="1.1">
 <defs>
  <style id="current-color-scheme" type="text/css">
   .ColorScheme-Text { color:#323a41; } .ColorScheme-Highlight { color:#4285f4; } .ColorScheme-NeutralText { color:#ff9800; } .ColorScheme-PositiveText { color:#4caf50; } .ColorScheme-NegativeText { color:#f44336; }
  </style>
 </defs>
 <g transform="translate(-3,-3)">
  <path style="fill:currentColor;opacity:0.3" class="ColorScheme-Text" d="M 8 1 A 7 7 0 0 0 1 8 A 7 7 0 0 0 8 15 A 7 7 0 0 0 15 8 A 7 7 0 0 0 8 1 z M 4 5 L 6 5 L 8 8 L 10 5 L 12 5 L 12 11 L 10 11 L 10 8.5 L 9 10 L 7 10 L 6 8.5 L 6 11 L 4 11 L 4 5 z" transform="translate(3,3)"/>
 </g>
</svg>
